packages/icons/src/corners.svg

<svg width="15" height="15" viewBox="0 0 15 15" fill="none" xmlns="http://www.w3.org/2000/svg">
  <path
    fill-rule="evenodd"
    clip-rule="evenodd"
    d="M5.5 2L4.87935 2C4.47687 1.99999 4.14469 1.99999 3.87409 2.0221C3.59304 2.04506 3.33469 2.09434 3.09202 2.21799C2.7157 2.40973 2.40973 2.7157 2.21799 3.09202C2.09434 3.33469 2.04506 3.59304 2.0221 3.87409C1.99999 4.14468 1.99999 4.47686 2 4.87933V4.87935V5.5C2 5.77614 2.22386 6 2.5 6C2.77614 6 3 5.77614 3 5.5V4.9C3 4.47171 3.00039 4.18056 3.01878 3.95552C3.03669 3.73631 3.06915 3.62421 3.10899 3.54601C3.20487 3.35785 3.35785 3.20487 3.54601 3.10899C3.62421 3.06915 3.73631 3.03669 3.95552 3.01878C4.18056 3.00039 4.47171 3 4.9 3H5.5C5.77614 3 6 2.77614 6 2.5C6 2.22386 5.77614 2 5.5 2ZM13 9.5C13 9.22386 12.7761 9 12.5 9C12.2239 9 12 9.22386 12 9.5V10.1C12 10.5283 11.9996 10.8194 11.9812 11.0445C11.9633 11.2637 11.9309 11.3758 11.891 11.454C11.7951 11.6422 11.6422 11.7951 11.454 11.891C11.3758 11.9309 11.2637 11.9633 11.0445 11.9812C10.8194 11.9996 10.5283 12 10.1 12H9.5C9.22386 12 9 12.2239 9 12.5C9 12.7761 9.22386 13 9.5 13H10.1206C10.5231 13 10.8553 13 11.1259 12.9779C11.407 12.9549 11.6653 12.9057 11.908 12.782C12.2843 12.5903 12.5903 12.2843 12.782 11.908C12.9057 11.6653 12.9549 11.407 12.9779 11.1259C13 10.8553 13 10.5232 13 10.1207V10.1207V10.1207V10.1206V9.5ZM2.5 9C2.77614 9 3 9.22386 3 9.5V10.1C3 10.5283 3.00039 10.8194 3.01878 11.0445C3.03669 11.2637 3.06915 11.3758 3.10899 11.454C3.20487 11.6422 3.35785 11.7951 3.54601 11.891C3.62421 11.9309 3.73631 11.9633 3.95552 11.9812C4.18056 11.9996 4.47171 12 4.9 12H5.5C5.77614 12 6 12.2239 6 12.5C6 12.7761 5.77614 13 5.5 13H4.87935C4.47687 13 4.14469 13 3.87409 12.9779C3.59304 12.9549 3.33469 12.9057 3.09202 12.782C2.7157 12.5903 2.40973 12.2843 2.21799 11.908C2.09434 11.6653 2.04506 11.407 2.0221 11.1259C1.99999 10.8553 1.99999 10.5231 2 10.1207V10.1206V10.1V9.5C2 9.22386 2.22386 9 2.5 9ZM10.1 3C10.5283 3 10.8194 3.00039 11.0445 3.01878C11.2637 3.03669 11.3758 3.06915 11.454 3.10899C11.6422 3.20487 11.7951 3.35785 11.891 3.54601C11.9309 3.62421 11.9633 3.73631 11.9812 3.95552C11.9996 4.18056 12 4.47171 12 4.9V5.5C12 5.77614 12.2239 6 12.5 6C12.7761 6 13 5.77614 13 5.5V4.87935V4.87934C13 4.47686 13 4.14468 12.9779 3.87409C12.9549 3.59304 12.9057 3.33469 12.782 3.09202C12.5903 2.7157 12.2843 2.40973 11.908 2.21799C11.6653 2.09434 11.407 2.04506 11.1259 2.0221C10.8553 1.99999 10.5231 1.99999 10.1206 2L10.1 2H9.5C9.22386 2 9 2.22386 9 2.5C9 2.77614 9.22386 3 9.5 3H10.1Z"
    fill="currentColor"
  />
</svg>

<svg xmlns="http://www.w3.org/2000/svg" width="15" height="15" fill="none"><path fill="currentColor" fill-rule="evenodd" d="M5.5 2h-.62c-.403 0-.735 0-1.006.022-.281.023-.54.072-.782.196a2 2 0 0 0-.874.874c-.124.243-.173.501-.196.782C2 4.144 2 4.477 2 4.88v.62a.5.5 0 0 0 1 0v-.6c0-.428 0-.72.019-.944.018-.22.05-.332.09-.41a1 1 0 0 1 .437-.437c.078-.04.19-.072.41-.09C4.18 3 4.472 3 4.9 3h.6a.5.5 0 0 0 0-1M13 9.5a.5.5 0 0 0-1 0v.6c0 .428 0 .72-.019.944-.018.22-.05.332-.09.41a1 1 0 0 1-.437.437c-.078.04-.19.072-.41.09-.225.019-.516.019-.944.019h-.6a.5.5 0 0 0 0 1h.62c.403 0 .735 0 1.006-.022.281-.023.54-.072.782-.196a2 2 0 0 0 .874-.874c.124-.243.173-.501.196-.782.022-.27.022-.603.022-1.005zM2.5 9a.5.5 0 0 1 .5.5v.6c0 .428 0 .72.019.944.018.22.05.332.09.41a1 1 0 0 0 .437.437c.078.04.19.072.41.09.225.019.516.019.944.019h.6a.5.5 0 0 1 0 1h-.62c-.403 0-.735 0-1.006-.022-.281-.023-.54-.072-.782-.196a2 2 0 0 1-.874-.874c-.124-.243-.173-.501-.196-.782C2 10.856 2 10.523 2 10.12V9.5a.5.5 0 0 1 .5-.5m7.6-6c.428 0 .72 0 .944.019.22.018.332.05.41.09a1 1 0 0 1 .437.437c.04.078.072.19.09.41.019.225.019.516.019.944v.6a.5.5 0 0 0 1 0v-.62c0-.403 0-.735-.022-1.006-.023-.281-.072-.54-.196-.782a2 2 0 0 0-.874-.874c-.243-.124-.501-.173-.782-.196A13 13 0 0 0 10.12 2H9.5a.5.5 0 0 0 0 1z" clip-rule="evenodd"/></svg>
